X: 11521
T: Eddie Moloney's
R: reel
M: 4/4
K: Dmajor
dF F2 A3B|defd egfe|dF F2 A3d|BE E2 GABc|
dD D2 A3B|defd egfe|dF F2 A3F|BE E2 GABc||
d2dF A2FA|defd egfe|dF F2 A3F|BE E2 GABc|
d2dF ADFA|defd e3f|dedB A2FA|Be e2 gefe||

